X:1
T: Hey to the Camp
C:
R:Jig
Q:180
K:C
M:6/8
L:1/16
|:G2|c4e2 d2B2G2|ABc2D2 D4C2|EFG2G2 c4c2|e2g2e2 d6|
c4e2 d2B2G2|ABc2D2 D4C2|EFG2G2 c4G2|E2C2C2 C4:|
|:f2|e2f2g2 g2e2c2|e2a2a2 a4c2|B2c2d2 d2B2G2|Bcd2d2 d4f2|
|1e2f2g2 g2e2c2|e2a2a2 a4f2|e2d2c2 B2A2G2|ABc2c2 c4:|
|2e2f2g2 g2e2c2|e2f2g2 g2a2g2|e2d2c2 B2A2G2|ABc2c2 c4||
